img/svgicons/search.svg

<svg width="24" height="24" viewBox="0 0 24 24" fill="none" xmlns="http://www.w3.org/2000/svg">
<path d="M15.7549 14.2539H14.9649L14.6849 13.9839C15.6649 12.8439 16.2549 11.3639 16.2549 9.75391C16.2549 6.16391 13.3449 3.25391 9.75488 3.25391C6.16488 3.25391 3.25488 6.16391 3.25488 9.75391C3.25488 13.3439 6.16488 16.2539 9.75488 16.2539C11.3649 16.2539 12.8449 15.6639 13.9849 14.6839L14.2549 14.9639V15.7539L19.2549 20.7439L20.7449 19.2539L15.7549 14.2539ZM9.75488 14.2539C7.26488 14.2539 5.25488 12.2439 5.25488 9.75391C5.25488 7.26391 7.26488 5.25391 9.75488 5.25391C12.2449 5.25391 14.2549 7.26391 14.2549 9.75391C14.2549 12.2439 12.2449 14.2539 9.75488 14.2539Z" fill="#0C0C0C"/>
</svg>

<svg width="24" height="24" fill="none" xmlns="http://www.w3.org/2000/svg"><path d="M15.755 14.254h-.79l-.28-.27a6.471 6.471 0 001.57-4.23 6.5 6.5 0 10-6.5 6.5c1.61 0 3.09-.59 4.23-1.57l.27.28v.79l5 4.99 1.49-1.49-4.99-5zm-6 0c-2.49 0-4.5-2.01-4.5-4.5s2.01-4.5 4.5-4.5 4.5 2.01 4.5 4.5-2.01 4.5-4.5 4.5z" fill="#0C0C0C"/></svg>
